X: 1252
T: The Gooseberry Bush
M:C|
L:1/8
R:Reel
B:O'Neill's 1252
N:Collected by Cronin
Z:Transcribed by Trish O'Neil
K:D
A,2|D3E FEFG|A2(AB) cAGB|ABcA dcAG|FGAF GBAF|
D3E FEFG|ABcA dcde|fdec dfed|cABcd2||
A2|d2(de) fded|cAdB cAGB|ABAFG2(AG)|FABc dcBc|
d2(de) fded|cAdB cAGB|ABcA dcAG|ABced2||
A2|d2(de) fged|fefg agfd|cdefg2(ec)|gfge dcAB|
dcdB ABAG|FGAB cAGB|ABcA dcAG|ABced2||


